X: 52
T: Stomp Dance Song (h) [First rendition]
C: Anon.
%%abc-version 2.0
%%abcx-abcm2ps-target-version 5.9.1 (29 Sep 2008)
%%abc-creator hum2abc beta
%%abcx-conversion-date 2020/08/10 20:56:09
%%abc-copyright Electronic Copyright 2000 David Huron
%%abc-edited-by David Huron
%%abcx-initial-encoding-date August 29, 2000
%%humdrum-veritas 2998440010
%%humdrum-veritas-data 260975412
%%linebreak <none>
%%barnumbers 0
L: 1/16
M: 2/4
Q: 1/4=63
K: C clef=bass
C2> A,2 A,2 A,2 | 
C2> C2 A,2 C2 | 
C2> A,2 A, G, A,2 | 
E D2 C A,2 C2[M:5/8] | 
C2> A,2 A, G, A, z/ A,< A, A,/[M:2/4] | 
C2 A,2 C C3 | 
C2> A,2 A, G, A, z ]|:  
E D2 C A,2 C z [I:setbarnb 9]| 
C2> A,2 A, G, A,2 :|]  
E D2 C A,2 C z [I:setbarnb 11]| 
C2> A,2 A, G, A,2 | 
E D2 C A,2 C z[M:5/8] | 
C2> A,2 A, G, A, z/ A,< A, A,/[M:2/4] | 
E4E z D2 | 
C> A, A,2z4 | 
E2> B,2 D2 D2 | 
C2> A,2 A, G, A, z | 
E2 C> A, A,2 z2 | 
C2> A,2 A,2 A, z | 
E2 C> A, A,2 z2 | 
C2> A,2 A, G, A, z | 
D2> E2 D2 D2 | 
C2> A,2 A, G, A, | 
D2> E2 D2 D2 | 
C2> A,2 A, G, A,2 | 
C2> C2 C2 C2 | 
C2> A,2 A, G, A,2 | 
C2> C2 C2 C2 | 
C2> A,2 A, G, A,2 | 
A, D D2 A,2 C z | 
C2> A,2 A, G, A, z | 
D D D2 A,2 C z[M:3/4] | 
C2> A,2 A,2 G,2 A,2 z A, | 
A,2 z2 A,2 z2z4 |]  


